X: 02102
T: PRANCY LASS
C: Bob McQuillen Jan'76
B: Bob's Note Book 1&2 #102
N: The name "JACK" in the title is underlined.
Z: 2019 John Chambers <jc:trillian.mit.edu>
M: 6/8
L: 1/8
K: G
D \
| GFG A2d | BdB AGA | Bdd Bee | gfg e2D |\
| GFG A2d | BdB AGA | Bdd Bee | dBA G2 :|
|: d \
| ede ege | dBG GBd | ede ege | dBG A2B |\
| ede ege | dBG AGA | BAB dBA | Bee e2 :|
%%begintext align
%% With love to Nancy Pratt
%%endtext

%%sep 1 1 500

%%sep 1 1 500

